icons/No_X.svg

<svg width="16" height="16" viewBox="0 0 16 16" fill="currentColor" xmlns="http://www.w3.org/2000/svg">
<g clip-path="url(#clip0_4_639)">
<path d="M15.9661 7.33517C15.7941 5.33998 15.0487 3.74383 13.7298 2.48971C13.6725 2.43271 13.5005 2.3757 13.4431 2.48971C13.3858 2.54672 13.3284 2.71773 13.4431 2.77474C14.7046 3.97185 15.3927 5.454 15.5647 7.39218C15.9088 11.5536 12.8697 15.1449 8.62644 15.544C4.44052 15.886 0.770675 12.8077 0.426627 8.6463C0.0825786 4.4849 3.12167 0.89356 7.36493 0.494522C9.08517 0.323505 10.576 0.722544 11.9522 1.57763C12.0669 1.63463 12.1816 1.63463 12.2389 1.52062C12.2963 1.40661 12.2389 1.2926 12.1816 1.23559C10.7481 0.2665 9.14251 -0.132538 7.36493 0.0384787C2.89231 0.494522 -0.318811 4.25688 0.0252374 8.70331C0.369286 12.8647 3.86711 16 8.05303 16H8.68378C13.1564 15.544 16.3675 11.7246 15.9661 7.33517V7.33517Z" fill="#3D3D3D"/>
<path fill-rule="evenodd" clip-rule="evenodd" d="M4.0645 4.06286C4.15003 3.97859 4.28817 3.97912 4.37305 4.06403L11.9367 11.6308C12.0216 11.7157 12.021 11.8529 11.9355 11.9371C11.85 12.0214 11.7118 12.0209 11.627 11.936L4.06331 4.36918C3.97844 4.28427 3.97897 4.14712 4.0645 4.06286Z" fill="#3D3D3D"/>
<path fill-rule="evenodd" clip-rule="evenodd" d="M11.9403 4.06787C12.0221 4.15598 12.0195 4.29614 11.9345 4.38093L4.36159 11.9381C4.27662 12.0229 4.14145 12.0202 4.05968 11.9321C3.9779 11.844 3.98049 11.7039 4.06546 11.6191L11.6384 4.06188C11.7234 3.97709 11.8586 3.97977 11.9403 4.06787Z" fill="#3D3D3D"/>
</g>
<defs>
<clipPath id="clip0_4_639">
<rect width="16" height="16" fill="white"/>
</clipPath>
</defs>
</svg>

<svg xmlns="http://www.w3.org/2000/svg" width="16" height="16" fill="currentColor" class="si si-No_X" viewBox="0 0 16 16">
  <g clip-path="url(#a)">
    <path d="M15.966 7.335c-.172-1.995-.917-3.591-2.236-4.845-.058-.057-.23-.114-.287 0-.057.057-.115.228 0 .285 1.262 1.197 1.95 2.679 2.122 4.617.344 4.162-2.695 7.753-6.939 8.152-4.185.342-7.855-2.736-8.2-6.898C.084 4.485 3.123.894 7.366.495c1.72-.171 3.211.228 4.587 1.083.115.057.23.057.287-.057s0-.228-.057-.285Q10.03-.22 7.365.038C2.892.495-.32 4.257.025 8.703.37 12.865 3.867 16 8.053 16h.63c4.473-.456 7.685-4.275 7.283-8.665"/>
    <path fill-rule="evenodd" d="M4.065 4.063a.22.22 0 0 1 .308.001l7.564 7.567a.215.215 0 0 1-.002.306.22.22 0 0 1-.308-.001L4.063 4.369a.216.216 0 0 1 .002-.306"/>
    <path fill-rule="evenodd" d="M11.94 4.068a.227.227 0 0 1-.005.313l-7.573 7.557a.21.21 0 0 1-.302-.006.227.227 0 0 1 .005-.313l7.573-7.557a.21.21 0 0 1 .302.006"/>
  </g>
  <defs>
    <clipPath id="a">
      <path d="M0 0h16v16H0z"/>
    </clipPath>
  </defs>
</svg>
